;FLAVOR:Marlin
;TIME:1984
;Filament used: 2.00363m
;Layer height: 0.3
;MINX:49.847
;MINY:65.614
;MINZ:0.3
;MAXX:163.33
;MAXY:134.556
;MAXZ:11.175
;Generated with Cura_SteamEngine 5.0.0
M82 ;absolute extrusion mode
;Profil Homepage: https://github.com/NilsRo/Cura_Anycubic_MegaS_Profile

;Slicer Information - (Support for OctoPrint Slicer Estimator)
;Slicer info:material_guid;69386c85-5b6c-421a-bec5-aeb1fb33f060
;Slicer info:material_id;generic_petg_175
;Slicer info:material_brand;Generic
;Slicer info:material_name;PETG
;Slicer info:material_bed_temperature;90
;Slicer info:material_bed_temperature_layer_0;90
;Slicer info:material_print_temperature;240
;Slicer info:material_print_temperature_layer_0;245
;Slicer info:material_flow;100
;Slicer info:layer_height;0.3
;Slicer info:wall_thickness;1.2000000000000002
;Slicer info:speed_print;70.0
;Slicer info:speed_topbottom;35.0
;Slicer info:travel_speed;100.0
;Slicer info:support;0
;Slicer info:retraction_speed;30
;Slicer info:retraction_amount;6
;Slicer info:layer_height;0.3
;Slicer info:infill_pattern;grid
;Slicer info:infill_sparse_density;20
;Slicer info:cool_fan_enabled;True
;Slicer info:cool_fan_speed;70
;Slicer info:sliced_at;Sun 20-10-2024 01:38:51
G21                                        ; metric values 
G90                                        ; absolute positioning 
M82                                        ; set extruder to absolute mode 
M107                                       ; start with the fan off 
M140 S90   ; Start heating the bed 
G4 S60                                     ; wait 1 minute 
M104 S245 ; start heating the hot end 
M190 S90   ; wait for bed 
M109 S245 ; wait for hotend 
M300 S1000 P500                            ; BEEP heating done 
G28 X0 Y10 Z0                              ; move X/Y to min endstops 
M420 S1                                    ; Enable leveling 
M420 Z2.0                                  ; Set leveling fading height to 2 mm 
G0 Z0.15                                   ; lift nozzle a bit 
G92 E0                                     ; zero the extruded length 
G1 X50 E20 F500                            ; Extrude 20mm of filament in a 5cm line. 
G92 E0                                     ; zero the extruded length again 
G1 E-2 F500                                ; Retract a little 
G1 X120 F4000                              ; Quickly wipe away from the filament line`
G92 E0
G92 E0
G1 F1800 E-6
;LAYER_COUNT:38
;LAYER:0
M106 S76.5
M205 X10 Y10
G1 F480 Z0.375
G0 F6000 X54.094 Y70.409 Z0.375
G1 F480 Z0.375
G0 F6000 X49.848 Y79.333
M205 X8 Y8
;TYPE:SKIRT
G1 F480 Z0.3
G1 F1800 E0
G1 F1200 X49.89 Y78.414 E0.0459
G1 X50.002 Y77.5 E0.09184
G1 X50.305 Y76.147 E0.16101
G1 X50.778 Y74.819 E0.23134
G1 X51.404 Y73.568 E0.30113
G1 X52.172 Y72.41 E0.37046
G1 X53.075 Y71.35 E0.43993
G1 X54.094 Y70.409 E0.50913
G1 X55.224 Y69.594 E0.57864
G1 X56.451 Y68.918 E0.64853
G1 X57.772 Y68.389 E0.71952
G1 X59.078 Y68.042 E0.78694
G1 X60.48 Y67.842 E0.85759
G1 X61.863 Y67.815 E0.9266
G1 X63.269 Y67.959 E0.99712
G1 X64.591 Y68.256 E1.06471
G1 X65.93 Y68.731 E1.1356
G1 X67.18 Y69.357 E1.20534
G1 X68.343 Y70.128 E1.27496
G1 X69.4 Y71.03 E1.34428
G1 X70.133 Y70.849 E1.38195
G1 X71.408 Y70.61 E1.44667
G1 X72.684 Y70.516 E1.5105
G1 X73.94 Y70.561 E1.5732
G1 X75.264 Y70.76 E1.64
G1 X76.431 Y71.071 E1.70025
G1 X76.974 Y70.484 E1.74015
G1 X77.794 Y69.773 E1.79429
G1 X78.079 Y69.559 E1.81207
G1 X79.034 Y68.945 E1.86872
G1 X79.35 Y68.773 E1.88667
G1 X80.355 Y68.315 E1.94177
G1 X80.685 Y68.192 E1.95934
G1 X81.742 Y67.881 E2.01431
G1 X82.094 Y67.804 E2.03228
G1 X83.213 Y67.643 E2.08869
G1 X83.568 Y67.618 E2.10644
G1 X84.664 Y67.618 E2.16112
G1 X85.019 Y67.643 E2.17887
G1 X86.142 Y67.805 E2.23548
G1 X86.493 Y67.882 E2.25341
G1 X87.546 Y68.192 E2.30817
G1 X88.331 Y68.522 E2.35066
G1 X88.883 Y68.198 E2.38259
G1 X89.876 Y67.743 E2.43708
G1 X90.206 Y67.619 E2.45467
G1 X91.288 Y67.3 E2.51095
G1 X91.641 Y67.223 E2.52897
G1 X92.733 Y67.065 E2.58402
G1 X93.088 Y67.039 E2.60178
G1 X94.226 Y67.039 E2.65856
G1 X94.582 Y67.065 E2.67636
G1 X95.681 Y67.224 E2.73176
G1 X96.033 Y67.301 E2.74974
G1 X97.102 Y67.617 E2.80535
G1 X98.133 Y68.061 E2.86136
G1 X99.014 Y67.249 E2.92113
G1 X99.662 Y66.797 E2.96055
G1 X100.352 Y66.414 E2.99992
G1 X101.077 Y66.102 E3.0393
G1 X101.83 Y65.865 E3.07868
G1 X102.604 Y65.705 E3.11811
G1 X103.389 Y65.624 E3.15749
G1 X103.792 Y65.614 E3.1776
G1 X111.293 Y65.614 E3.55182
G1 X112.082 Y65.654 E3.59124
G1 X112.862 Y65.773 E3.6306
G1 X113.627 Y65.971 E3.67003
G1 X114.367 Y66.245 E3.7094
G1 X115.076 Y66.593 E3.7488
G1 X115.747 Y67.011 E3.78824
G1 X116.371 Y67.494 E3.82761
G1 X116.944 Y68.037 E3.86699
G1 X117.459 Y68.636 E3.9064
G1 X117.91 Y69.284 E3.94579
G1 X118.294 Y69.975 E3.98523
G1 X118.606 Y70.7 E4.02461
G1 X118.843 Y71.453 E4.06399
G1 X119.002 Y72.227 E4.10341
G1 X119.043 Y72.625 E4.12337
G1 X119.497 Y72.947 E4.15114
G1 X120.252 Y73.568 E4.19991
G1 X120.981 Y74.281 E4.25079
G1 X121.653 Y75.069 E4.30246
G1 X122.073 Y75.654 E4.33838
G1 X122.862 Y75.773 E4.37819
G1 X123.627 Y75.971 E4.41762
G1 X124.367 Y76.245 E4.45699
G1 X125.076 Y76.593 E4.49639
G1 X125.676 Y76.967 E4.53166
G1 X153.073 Y76.969 E5.8985
G1 X153.693 Y76.994 E5.92946
G1 X154.943 Y77.151 E5.99231
G1 X156.198 Y77.47 E6.05692
G1 X156.493 Y77.57 E6.07246
G1 X157.438 Y77.961 E6.12348
G1 X158.546 Y78.572 E6.18661
G1 X159.58 Y79.32 E6.25028
G1 X160.529 Y80.207 E6.31508
G1 X160.742 Y80.44 E6.33083
G1 X161.389 Y81.25 E6.38255
G1 X162.043 Y82.283 E6.44355
G1 X162.191 Y82.56 E6.45922
G1 X162.611 Y83.489 E6.51008
G1 X162.999 Y84.68 E6.57257
G1 X163.247 Y85.964 E6.63782
G1 X163.33 Y87.27 E6.70311
G1 X163.25 Y88.549 E6.76704
G1 X163.206 Y88.861 E6.78276
G1 X163 Y89.852 E6.83326
G1 X162.626 Y91.007 E6.89383
G1 X162.507 Y91.3 E6.9096
G1 X162.045 Y92.248 E6.96222
G1 X161.368 Y93.311 E7.02509
G1 X160.563 Y94.288 E7.08825
G1 X160.346 Y94.514 E7.10388
G1 X159.581 Y95.212 E7.15555
G1 X158.577 Y95.942 E7.21748
G1 X158.307 Y96.109 E7.23332
G1 X157.398 Y96.591 E7.28465
G1 X156.215 Y97.057 E7.34808
G1 X154.98 Y97.375 E7.41171
G1 X153.82 Y97.532 E7.47011
G1 X153.035 Y97.567 E7.50931
G1 X135.054 Y97.566 E8.40638
G1 X136.077 Y97.697 E8.45784
G1 X136.842 Y97.895 E8.49726
G1 X137.582 Y98.169 E8.53663
G1 X138.291 Y98.517 E8.57603
G1 X138.962 Y98.935 E8.61547
G1 X139.586 Y99.418 E8.65484
G1 X140.159 Y99.961 E8.69423
G1 X140.674 Y100.56 E8.73364
G1 X141.125 Y101.208 E8.77303
G1 X141.509 Y101.899 E8.81247
G1 X141.821 Y102.624 E8.85184
G1 X142.058 Y103.377 E8.89123
G1 X142.217 Y104.151 E8.93065
G1 X142.298 Y104.936 E8.97002
G1 X142.308 Y105.338 E8.99008
G1 X142.308 Y110.088 E9.22706
G1 X142.268 Y110.877 E9.26647
G1 X142.189 Y111.392 E9.29247
G1 X142.625 Y112.062 E9.33235
G1 X143.091 Y112.918 E9.38097
G1 X143.468 Y113.775 E9.42768
G1 X143.781 Y114.678 E9.47536
G1 X144.015 Y115.586 E9.52214
G1 X144.175 Y116.519 E9.56937
G1 X144.259 Y117.456 E9.61631
G1 X144.265 Y118.444 E9.6656
G1 X144.187 Y119.413 E9.7141
G1 X144.035 Y120.332 E9.76057
G1 X143.803 Y121.262 E9.80839
G1 X143.499 Y122.159 E9.85564
G1 X143.126 Y123.023 E9.90259
G1 X142.662 Y123.889 E9.95161
G1 X142.139 Y124.693 E9.99946
G1 X141.575 Y125.422 E10.04544
G1 X140.911 Y126.15 E10.0946
G1 X140.211 Y126.798 E10.14219
G1 X139.497 Y127.358 E10.18746
G1 X138.641 Y127.923 E10.23863
G1 X137.823 Y128.366 E10.28504
G1 X136.992 Y128.735 E10.33041
G1 X136.461 Y128.926 E10.35856
G1 X136.145 Y129.83 E10.40634
G1 X135.797 Y130.539 E10.44574
G1 X135.379 Y131.21 E10.48518
G1 X134.896 Y131.834 E10.52455
G1 X134.353 Y132.407 E10.56393
G1 X133.754 Y132.922 E10.60334
G1 X133.106 Y133.373 E10.64273
G1 X132.415 Y133.757 E10.68217
G1 X131.69 Y134.069 E10.72155
G1 X130.937 Y134.306 E10.76093
G1 X130.163 Y134.465 E10.80035
G1 X129.378 Y134.546 E10.83973
G1 X128.976 Y134.556 E10.85979
G1 X121.476 Y134.556 E11.23396
G1 X120.687 Y134.516 E11.27338
G1 X119.907 Y134.397 E11.31274
G1 X119.142 Y134.199 E11.35217
G1 X118.402 Y133.925 E11.39153
G1 X117.693 Y133.577 E11.43094
G1 X117.022 Y133.159 E11.47038
G1 X116.398 Y132.676 E11.50975
G1 X115.825 Y132.133 E11.54913
G1 X115.31 Y131.534 E11.58854
G1 X114.859 Y130.886 E11.62793
G1 X114.475 Y130.195 E11.66737
G1 X114.163 Y129.47 E11.70675
G1 X114.013 Y128.992 E11.73174
G1 X113.391 Y129.12 E11.76342
G1 X112.606 Y129.201 E11.80279
G1 X112.204 Y129.211 E11.82286
G1 X102.454 Y129.211 E12.30929
G1 X101.665 Y129.171 E12.3487
G1 X100.885 Y129.052 E12.38806
G1 X100.12 Y128.854 E12.42749
G1 X99.38 Y128.58 E12.46686
G1 X98.671 Y128.232 E12.50626
G1 X98 Y127.814 E12.5457
G1 X97.376 Y127.331 E12.58507
G1 X96.803 Y126.788 E12.62445
G1 X96.288 Y126.189 E12.66386
G1 X95.837 Y125.541 E12.70325
G1 X95.502 Y124.939 E12.73762
G1 X94.561 Y125.074 E12.78505
G1 X94.206 Y125.099 E12.8028
G1 X93.11 Y125.099 E12.85748
G1 X92.755 Y125.074 E12.87524
G1 X91.632 Y124.912 E12.93185
G1 X91.281 Y124.835 E12.94977
G1 X90.201 Y124.515 E13.00597
G1 X89.441 Y124.195 E13.04711
G1 X88.88 Y124.524 E13.07956
G1 X87.904 Y124.971 E13.13311
G1 X87.575 Y125.095 E13.15066
G1 X86.486 Y125.417 E13.20731
G1 X86.133 Y125.494 E13.22534
G1 X85.041 Y125.652 E13.28038
G1 X84.686 Y125.678 E13.29814
G1 X83.548 Y125.678 E13.35492
G1 X83.192 Y125.652 E13.37273
G1 X82.093 Y125.493 E13.42813
G1 X81.741 Y125.416 E13.4461
G1 X80.664 Y125.098 E13.50213
G1 X80.334 Y124.974 E13.51971
G1 X79.351 Y124.524 E13.57365
G1 X79.033 Y124.351 E13.59171
G1 X78.063 Y123.726 E13.64928
G1 X77.778 Y123.511 E13.66709
G1 X77.011 Y122.843 E13.71784
G1 X76.211 Y123.118 E13.76004
G1 X74.939 Y123.422 E13.82529
G1 X73.694 Y123.577 E13.88788
G1 X72.363 Y123.594 E13.95429
G1 X71.085 Y123.463 E14.01838
G1 X70.876 Y123.426 E14.02897
G1 X70.344 Y124.147 E14.07368
G1 X69.729 Y124.843 E14.12001
G1 X68.69 Y125.801 E14.19052
G1 X67.571 Y126.607 E14.25932
G1 X66.344 Y127.283 E14.32921
G1 X65.039 Y127.807 E14.39937
G1 X63.7 Y128.164 E14.46851
G1 X62.331 Y128.358 E14.53749
G1 X60.913 Y128.386 E14.60825
G1 X59.543 Y128.246 E14.67695
G1 X58.188 Y127.941 E14.74625
G1 X56.864 Y127.469 E14.81637
G1 X55.61 Y126.841 E14.88634
G1 X54.463 Y126.081 E14.95499
G1 X53.386 Y125.164 E15.02556
G1 X52.451 Y124.147 E15.09448
G1 X51.639 Y123.021 E15.16374
G1 X50.964 Y121.795 E15.23356
G1 X50.438 Y120.484 E15.30404
G1 X50.078 Y119.117 E15.37456
G1 X49.889 Y117.771 E15.44237
G1 X49.847 Y116.852 E15.48827
G1 X49.848 Y79.333 E17.3601
M205 X10 Y10
G0 F6000 X50.248 Y79.333
M205 X8 Y8
G1 F1200 X50.289 Y78.439 E17.40475
G1 X50.395 Y77.572 E17.44833
G1 X50.687 Y76.265 E17.51514
G1 X51.143 Y74.983 E17.58303
G1 X51.746 Y73.775 E17.65039
G1 X52.487 Y72.656 E17.71734
G1 X53.357 Y71.632 E17.78438
G1 X54.341 Y70.724 E17.85118
G1 X55.432 Y69.936 E17.91832
G1 X56.615 Y69.283 E17.98574
G1 X57.89 Y68.772 E18.05427
G1 X59.151 Y68.435 E18.11938
G1 X60.504 Y68.241 E18.18758
G1 X61.839 Y68.214 E18.25419
G1 X63.196 Y68.352 E18.32224
G1 X64.473 Y68.639 E18.38754
G1 X65.765 Y69.096 E18.45591
G1 X66.973 Y69.699 E18.52327
G1 X68.096 Y70.443 E18.59048
G1 X69.118 Y71.312 E18.65741
G1 X69.313 Y71.507 E18.67117
G1 X70.221 Y71.239 E18.7184
G1 X71.452 Y71.007 E18.78089
G1 X72.684 Y70.916 E18.84253
G1 X73.897 Y70.959 E18.90308
G1 X75.174 Y71.15 E18.9675
G1 X76.317 Y71.454 E19.02651
G1 X76.556 Y71.536 E19.03911
G1 X77.005 Y71.017 E19.07335
G1 X77.256 Y70.767 E19.09103
G1 X78.035 Y70.092 E19.14245
G1 X78.32 Y69.878 E19.16023
G1 X79.225 Y69.296 E19.21391
G1 X79.541 Y69.124 E19.23186
G1 X80.495 Y68.69 E19.28415
G1 X80.825 Y68.567 E19.30172
G1 X81.828 Y68.272 E19.35388
G1 X82.18 Y68.195 E19.37186
G1 X83.241 Y68.042 E19.42534
G1 X83.596 Y68.017 E19.44309
G1 X84.636 Y68.017 E19.49498
G1 X84.991 Y68.042 E19.51273
G1 X86.057 Y68.196 E19.56647
G1 X86.408 Y68.273 E19.5844
G1 X87.406 Y68.567 E19.6363
G1 X88.364 Y68.976 E19.68827
G1 X89.075 Y68.549 E19.72965
G1 X90.017 Y68.118 E19.78133
G1 X90.347 Y67.994 E19.79892
G1 X91.373 Y67.691 E19.85229
G1 X91.726 Y67.614 E19.87032
G1 X92.762 Y67.464 E19.92254
G1 X93.117 Y67.438 E19.9403
G1 X94.197 Y67.438 E19.99418
G1 X94.553 Y67.464 E20.01199
G1 X95.595 Y67.615 E20.06452
G1 X95.947 Y67.692 E20.08249
G1 X96.962 Y67.991 E20.13528
G1 X97.293 Y68.115 E20.15292
G1 X98.226 Y68.542 E20.20411
G1 X98.808 Y67.944 E20.24574
G1 X99.402 Y67.457 E20.28406
G1 X100.044 Y67.033 E20.32245
G1 X100.727 Y66.679 E20.36083
G1 X101.443 Y66.397 E20.39922
G1 X102.184 Y66.191 E20.43759
G1 X102.942 Y66.063 E20.47594
G1 X103.792 Y66.014 E20.51842
G1 X111.293 Y66.014 E20.89265
G1 X112.061 Y66.054 E20.93101
G1 X112.821 Y66.173 E20.96939
G1 X113.564 Y66.371 E21.00775
G1 X114.283 Y66.645 E21.04614
G1 X114.969 Y66.992 E21.08449
G1 X115.616 Y67.408 E21.12287
G1 X116.216 Y67.889 E21.16124
G1 X116.763 Y68.43 E21.19962
G1 X117.251 Y69.025 E21.23801
G1 X117.674 Y69.667 E21.27637
G1 X118.029 Y70.35 E21.31477
G1 X118.31 Y71.065 E21.3531
G1 X118.516 Y71.807 E21.39152
G1 X118.644 Y72.565 E21.42987
G1 X118.66 Y72.848 E21.44401
G1 X119.252 Y73.263 E21.48008
G1 X119.981 Y73.862 E21.52715
G1 X120.685 Y74.55 E21.57626
G1 X121.333 Y75.31 E21.62609
G1 X121.857 Y76.043 E21.67104
G1 X122.821 Y76.173 E21.71957
G1 X123.564 Y76.371 E21.75793
G1 X124.283 Y76.645 E21.79632
G1 X124.969 Y76.992 E21.83468
G1 X125.552 Y77.367 E21.86926
G1 X153.073 Y77.369 E23.24229
G1 X153.661 Y77.392 E23.27165
G1 X154.863 Y77.543 E23.33208
G1 X156.07 Y77.849 E23.39421
G1 X157.261 Y78.32 E23.4581
G1 X158.327 Y78.907 E23.51882
G1 X159.321 Y79.625 E23.57999
G1 X160.234 Y80.477 E23.64229
G1 X161.061 Y81.479 E23.70711
G1 X161.69 Y82.472 E23.76576
G1 X162.237 Y83.63 E23.82965
G1 X162.611 Y84.775 E23.88974
G1 X162.85 Y86.009 E23.95245
G1 X162.93 Y87.264 E24.01519
G1 X162.853 Y88.493 E24.07663
G1 X162.614 Y89.745 E24.14022
G1 X162.255 Y90.857 E24.19852
G1 X162.136 Y91.15 E24.21429
G1 X161.698 Y92.049 E24.26418
G1 X161.048 Y93.071 E24.32461
G1 X160.275 Y94.011 E24.38533
G1 X159.331 Y94.9 E24.45002
G1 X158.367 Y95.601 E24.50949
G1 X157.234 Y96.226 E24.57404
G1 X156.097 Y96.675 E24.63503
G1 X154.911 Y96.981 E24.69614
G1 X153.794 Y97.133 E24.75238
G1 X153.035 Y97.167 E24.79028
G1 X133.293 Y97.166 E25.77522
G1 X133.102 Y97.938 E25.81489
G1 X134.508 Y97.938 E25.88504
G1 X135.276 Y97.978 E25.92341
G1 X136.036 Y98.097 E25.96178
G1 X136.779 Y98.295 E26.00015
G1 X137.498 Y98.569 E26.03853
G1 X138.184 Y98.916 E26.07689
G1 X138.831 Y99.332 E26.11526
G1 X139.431 Y99.813 E26.15363
G1 X139.978 Y100.354 E26.19201
G1 X140.466 Y100.949 E26.2304
G1 X140.889 Y101.591 E26.26876
G1 X141.244 Y102.274 E26.30716
G1 X141.525 Y102.989 E26.34549
G1 X141.731 Y103.731 E26.38391
G1 X141.859 Y104.489 E26.42226
G1 X141.908 Y105.338 E26.46469
G1 X141.908 Y110.088 E26.70167
G1 X141.868 Y110.856 E26.74003
G1 X141.769 Y111.489 E26.772
G1 X142.279 Y112.263 E26.81824
G1 X142.729 Y113.089 E26.86517
G1 X143.094 Y113.916 E26.91027
G1 X143.396 Y114.788 E26.95631
G1 X143.622 Y115.665 E27.00149
G1 X143.778 Y116.566 E27.04711
G1 X143.859 Y117.47 E27.09239
G1 X143.865 Y118.423 E27.13994
G1 X143.79 Y119.358 E27.18674
G1 X143.645 Y120.246 E27.23163
G1 X143.421 Y121.144 E27.2778
G1 X143.128 Y122.01 E27.32341
G1 X142.768 Y122.845 E27.36878
G1 X142.32 Y123.681 E27.4161
G1 X141.816 Y124.457 E27.46226
G1 X141.272 Y125.162 E27.50669
G1 X140.632 Y125.864 E27.55408
G1 X139.955 Y126.49 E27.60008
G1 X139.266 Y127.032 E27.64382
G1 X138.441 Y127.576 E27.69312
G1 X137.651 Y128.005 E27.73797
G1 X136.849 Y128.361 E27.78175
G1 X136.129 Y128.615 E27.81984
G1 X135.745 Y129.746 E27.87943
G1 X135.398 Y130.432 E27.91778
G1 X134.982 Y131.079 E27.95615
G1 X134.501 Y131.679 E27.99452
G1 X133.96 Y132.226 E28.0329
G1 X133.365 Y132.714 E28.07129
G1 X132.723 Y133.137 E28.10965
G1 X132.04 Y133.492 E28.14805
G1 X131.325 Y133.773 E28.18638
G1 X130.583 Y133.979 E28.2248
G1 X129.825 Y134.107 E28.26315
G1 X128.976 Y134.156 E28.30558
G1 X121.476 Y134.156 E28.67976
G1 X120.708 Y134.116 E28.71812
G1 X119.948 Y133.997 E28.7565
G1 X119.205 Y133.799 E28.79486
G1 X118.486 Y133.525 E28.83325
G1 X117.8 Y133.178 E28.87161
G1 X117.153 Y132.762 E28.90998
G1 X116.553 Y132.281 E28.94835
G1 X116.006 Y131.74 E28.98673
G1 X115.518 Y131.145 E29.02512
G1 X115.095 Y130.503 E29.06348
G1 X114.74 Y129.82 E29.10188
